X:1
T: The Frasers of Oban
C:
R:Jig
Q:180
K:A
M:6/8
L:1/16
E2|:A2B2c2 A4E2|C2D2E2 E4A2|c4A2 e4c2|a2g2f2 e2d2c2|
|1B2c2d2 B4F2|D2E2F2 F4B2|d4B2 f4A2|G2A2B2 E2F2G2:|
|2d2e2f2 B2c2d2|c2d2e2 A4c2|B2c2d2 E2F2G2|A6 A4E2|
|:C6 A,4C2|E2C2E2 A6|C2E2A2 A2G2A2|
|1F2E2D2 C2B,2A,2|D6 B,4D2|F2D2F2 B4c2|d2c2B2 c2B2A2|G2F2E2 D2C2B,2:|
|2c2B2A2 A2B2c2|d2e2f2 B2c2d2|c2d2e2 A4c2|B2c2d2 E2F2G2|A6 A4||
